icons/_assets/key.svg

<svg width="100" height="100" xmlns="http://www.w3.org/2000/svg"><path d="M44.3501725,61.3357411 L38.8681806,61.9587613 C35.1742267,62.3793992 32.2815786,65.6056125 32.2815786,69.3014058 L32.2815786,71.2908378 C32.2815786,72.6255034 31.1465056,73.8808032 29.8034905,74.0342435 L28.5200765,74.1797471 C24.8261226,74.600385 21.9308256,77.8265983 21.9308256,81.5237143 L21.9308256,86.687772 C21.9308256,88.0211147 20.7970771,89.2777374 19.4540619,89.4298548 L13.6356539,90.0925579 L13.6356539,82.227423 L43.384632,49.1319512 C44.326332,50.4018014 45.3978303,51.5790584 46.5978025,52.6412352 L46.5978025,52.6412352 C47.7050615,53.6214009 48.8878155,54.4745815 50.1248729,55.2073909 L44.3501725,61.3357411 Z M76.2514185,31.3064285 C72.9190456,35.0141266 67.5814212,35.7032849 64.3523571,32.8447991 L64.3523571,32.8447991 C62.9523896,31.6066951 62.1192964,29.8302276 62.0053917,27.8407955 C61.8676466,25.4267573 62.790804,22.9267396 64.5404322,20.9822815 C66.4874069,18.8155995 69.1178094,17.6806708 71.6144401,17.6806708 C73.3905578,17.6806708 75.0978029,18.254749 76.4408181,19.4439108 C77.8381367,20.680692 78.6712299,22.4584824 78.7851345,24.4479144 C78.9242042,26.8619526 77.9997223,29.3619703 76.2514185,31.3064285 L76.2514185,31.3064285 Z M91.9570141,27.4796819 C91.5835129,20.9359848 88.7902002,15.0417633 84.0909716,10.8843266 C73.6528034,1.64748883 56.7485601,3.48612615 46.4097274,14.9875301 C41.1025658,20.8923337 38.3039553,28.5683139 38.73176,36.0458799 C38.9132127,39.2072779 39.670811,42.2086219 40.9211131,44.9427682 L9.59336371,79.7948662 C9.21059114,80.2194723 9,80.7697408 9,81.3411734 L9,92.6851688 C9,93.3452264 9.28078818,93.9735377 9.77481645,94.4126943 C10.2012966,94.7923266 10.7509527,95 11.317827,95 C11.4039177,95 11.4913329,94.994709 11.5800725,94.9854496 L19.9798775,94.0304164 C23.6738315,93.6097785 26.5664795,90.3835653 26.5664795,86.687772 L26.5664795,81.5237143 C26.5664795,80.1890488 27.7015525,78.933749 29.0445677,78.7803087 L30.3279816,78.6348051 C34.0219355,78.2141672 36.9172326,74.9879539 36.9172326,71.2908378 L36.9172326,69.3014058 C36.9172326,67.968063 38.0509811,66.7114404 39.3939962,66.5593229 L45.7183527,65.8397411 C46.2627109,65.7775714 46.767335,65.5249241 47.1434852,65.1254504 L54.5870209,57.2285692 C57.140604,58.0857181 59.8306078,58.5261974 62.5616702,58.5261974 C70.3244039,58.5261974 78.3732236,55.1081839 84.2777222,48.5380316 C89.5862082,42.633228 92.3861432,34.9585707 91.9570141,27.4796819 L91.9570141,27.4796819 Z" fill="#134B45" fill-rule="evenodd"/></svg>

<svg width="100" height="100" xmlns="http://www.w3.org/2000/svg"><path d="m44.35 61.336-5.482.623c-3.694.42-6.586 3.647-6.586 7.342v1.99c0 1.335-1.135 2.59-2.479 2.743l-1.283.146c-3.694.42-6.59 3.647-6.59 7.344v5.164c0 1.333-1.133 2.59-2.476 2.742l-5.818.663v-7.866l29.749-33.095a22.88 22.88 0 0 0 3.213 3.51c1.107.98 2.29 1.833 3.527 2.565l-5.775 6.129zm31.901-30.03c-3.332 3.708-8.67 4.397-11.899 1.539-1.4-1.238-2.233-3.015-2.347-5.004-.137-2.414.786-4.914 2.535-6.859 1.947-2.166 4.578-3.301 7.074-3.301 1.777 0 3.484.574 4.827 1.763 1.397 1.237 2.23 3.014 2.344 5.004.14 2.414-.785 4.914-2.534 6.858zm15.706-3.826c-.373-6.544-3.167-12.438-7.866-16.596-10.438-9.237-27.342-7.398-37.681 4.104-5.307 5.904-8.106 13.58-7.678 21.058a24.735 24.735 0 0 0 2.19 8.897L9.592 79.795A2.307 2.307 0 0 0 9 81.34v11.344c0 .66.28 1.289.775 1.728a2.32 2.32 0 0 0 1.805.572l8.4-.955c3.694-.42 6.586-3.646 6.586-7.342v-5.164c0-1.335 1.136-2.59 2.479-2.744l1.283-.145c3.694-.42 6.59-3.647 6.59-7.344V69.3c0-1.333 1.133-2.59 2.476-2.742l6.324-.72a2.318 2.318 0 0 0 1.425-.714l7.444-7.896a25.045 25.045 0 0 0 7.975 1.297c7.762 0 15.811-3.418 21.716-9.988 5.308-5.905 8.108-13.58 7.679-21.058z" fill="#134B45" fill-rule="evenodd"/></svg>
